Dominus_Funeral/22/apps/redshift-status-off.svg

<svg xmlns="http://www.w3.org/2000/svg" width="24" height="24" viewBox="0 0 6.35 6.35"><defs><linearGradient id="b"><stop offset="0" stop-color="#0a0000"/><stop offset="1" stop-color="#020000" stop-opacity="0"/></linearGradient><linearGradient id="a"><stop offset="0" stop-color="#a02c2c"/><stop offset="1" stop-color="#d35f5f"/></linearGradient></defs><path d="M3.18.75a1.32 1.32 0 0 1 .8 2.38c-.5.37-.7.8-.76 1.14h-.09a1.86 1.86 0 0 0-.75-1.14 1.32 1.32 0 0 1 .8-2.38z" opacity=".5" fill="#1a1a1a" stroke-width=".43"/><path d="M3.17.26a1.87 1.87 0 0 0-1.12 3.37c.2.16.38.36.38.64l.02.36H3.9l.02-.36a.86.86 0 0 1 .38-.64A1.87 1.87 0 0 0 3.17.26zm0 .75a1.13 1.13 0 0 1 .68 2.02c-.42.32-.58.68-.64.98h-.07c-.06-.3-.22-.66-.64-.98a1.13 1.13 0 0 1 .68-2.02zM2.45 5v.37H3.9v-.37H2.45zm.36.73v.37h.73v-.37H2.8z" fill="#1a1a1a" stroke-width="1.37"/></svg>

<?xml version="1.0" encoding="UTF-8" standalone="no"?>
<svg
   xmlns:dc="http://purl.org/dc/elements/1.1/"
   xmlns:cc="http://creativecommons.org/ns#"
   xmlns:rdf="http://www.w3.org/1999/02/22-rdf-syntax-ns#"
   xmlns:svg="http://www.w3.org/2000/svg"
   xmlns="http://www.w3.org/2000/svg"
   xmlns:sodipodi="http://sodipodi.sourceforge.net/DTD/sodipodi-0.dtd"
   xmlns:inkscape="http://www.inkscape.org/namespaces/inkscape"
   width="24"
   height="24"
   viewBox="0 0 6.35 6.35"
   version="1.1"
   id="svg18"
   sodipodi:docname="redshift-status-off.svg"
   inkscape:version="0.92.4 (5da689c313, 2019-01-14)">
  <metadata
     id="metadata22">
    <rdf:RDF>
      <cc:Work
         rdf:about="">
        <dc:format>image/svg+xml</dc:format>
        <dc:type
           rdf:resource="http://purl.org/dc/dcmitype/StillImage" />
        <dc:title></dc:title>
      </cc:Work>
    </rdf:RDF>
  </metadata>
  <sodipodi:namedview
     pagecolor="#ffffff"
     bordercolor="#666666"
     borderopacity="1"
     objecttolerance="10"
     gridtolerance="10"
     guidetolerance="10"
     inkscape:pageopacity="0"
     inkscape:pageshadow="2"
     inkscape:window-width="1138"
     inkscape:window-height="480"
     id="namedview20"
     showgrid="false"
     inkscape:zoom="9.8333333"
     inkscape:cx="1.0677966"
     inkscape:cy="12"
     inkscape:window-x="0"
     inkscape:window-y="25"
     inkscape:window-maximized="0"
     inkscape:current-layer="svg18" />
  <defs
     id="defs12">
    <linearGradient
       id="b">
      <stop
         offset="0"
         stop-color="#0a0000"
         id="stop2" />
      <stop
         offset="1"
         stop-color="#020000"
         stop-opacity="0"
         id="stop4" />
    </linearGradient>
    <linearGradient
       id="a">
      <stop
         offset="0"
         stop-color="#a02c2c"
         id="stop7" />
      <stop
         offset="1"
         stop-color="#d35f5f"
         id="stop9" />
    </linearGradient>
  </defs>
  <path
     d="m 3.18,0.75 a 1.32,1.32 0 0 1 0.8,2.38 C 3.48,3.5 3.28,3.93 3.22,4.27 H 3.13 A 1.86,1.86 0 0 0 2.38,3.13 1.32,1.32 0 0 1 3.18,0.75 Z"
     id="path14"
     inkscape:connector-curvature="0"
     style="opacity:0.5;fill:#1a1a1a;stroke-width:0.43000001" />
  <path
     d="M 3.17,0.26 A 1.87,1.87 0 0 0 2.05,3.63 c 0.2,0.16 0.38,0.36 0.38,0.64 L 2.45,4.63 H 3.9 L 3.92,4.27 A 0.86,0.86 0 0 1 4.3,3.63 1.87,1.87 0 0 0 3.17,0.26 Z m 0,0.75 A 1.13,1.13 0 0 1 3.85,3.03 C 3.43,3.35 3.27,3.71 3.21,4.01 H 3.14 C 3.08,3.71 2.92,3.35 2.5,3.03 A 1.13,1.13 0 0 1 3.18,1.01 Z M 2.45,5 V 5.37 H 3.9 V 5 Z M 2.81,5.73 V 6.1 H 3.54 V 5.73 H 2.8 Z"
     id="path16"
     inkscape:connector-curvature="0"
     style="fill:#1a1a1a;stroke-width:1.37" />
</svg>
